!!!OTL: CUCA 2
!!!ARE: America, Central America, Mexico
!!!SCT: T0008A
!!!YEM: Copyright 1995, estate of Helmut Schaffrath.
**kern
*ICvox
*Ivox
*M4/4
*k[b-]
*F:
{8r
8c
8c
8c
=1
8f
4r
8a
8r
8c
8c
8c
=2
8f
4r
8a
2r}
=3
{8r
4f
8f
8e
8e
8d
8d
=4
2c}
{8r
8c
8c
8c
=5
8e
4r
8g
8r
8c
8c
8c
=6
8e
4r
8g
2r}
=7
{8r
4cc
8dd
8cc
8b-
8a
8g
=8
4.a
8f
2r}
=9
{8r
4c
8c
8f
8f
8a
8a
=10
4.cc
[2a
8a]
=11
{8r
4cc
8dd
8cc
8b-
8a
8cc
=12
4.b-
[2g
8g]
=13
{8r
4c
8c
8e
8e
8g
8g
=14
4.b-
[2g
8g]
=15
{8r
4cc
8dd
8cc
8b-
8a
8g
=16
4.a
[2f
8f]
==
!!!ONB: ESAC (Essen Associative Code) Database: TEST
!!!AMT: simple quadruple
!!!AIN: vox
!!!EED: Helmut Schaffrath
!!!EEV: 1.0
*-
